X: 1
T: Evit Gabriel
C: Daniel Thonon
S: library.yale.edu 2009
S: Fiddle Hell 2021 handout
Z: unknown
M: 2/4
L: 1/16
K: Em
|:\
"Em"EFGF EFGF | EFGA BEGB | "C"cBAG "D"FGAF | "G"BAGB "B"F2F2 |
"Em"EFGF EFGF | EFGA BEGB | "C"cBAG "D"FGAB, | "Em"E8 :|
|:\
"C"eAAe "D"dcBc | "G"dGGd cBAG | "Am"FGAc "B"BAGF | "Em"EFGA BEGB |
"C"eAAe "D"dcBc | "G"dGGd cBAG | "Am"FGAc "B"BAGF | "Em"EG"B"FD "Em"E4 :|
